public/showcase/resources/images/home/vw.svg

<svg height="40" viewBox="0 0 39 40" width="39" xmlns="http://www.w3.org/2000/svg"><g fill="#fff" fill-rule="evenodd" transform=""><path d="m23.073375 5.82452069c-1.1881071-.31810345-2.4430714-.48634483-3.7091786-.48634483-1.2549643 0-2.4709285.16824138-3.6283928.46937931l3.6771428 10.29948273z"/><path d="m33.8571536 20.0694759c0-1.8365173-.3106072-3.5910345-.9151072-5.2154828l-6.8974285 18.2676207c4.6256785-2.46 7.8125357-7.3842414 7.8125357-13.0521379"/><path d="m26.6595643 7.33784483-4.2523929 11.87586207h-1.8775714-2.2271786-1.88175l-4.2677143-11.92675862c-1.5781071.91755172-2.95564281 2.12775862-4.09778567 3.55710342l6.06171427 15.9532414 2.2202143-5.8276552h1.7090357 2.4026786 1.7104286l2.2188214 5.8276552 6.1202143-16.1426897c-1.0794643-1.32472409-2.3831786-2.4501034-3.8387143-3.31675857"/><path d="m19.3647536 37.073331c-9.2945357 0-16.8911786-7.693862-16.8911786-17.1252758 0-9.4512069 7.5966429-17.15779313 16.8911786-17.15779313s16.8911785 7.70658623 16.8911785 17.15779313c0 9.4314138-7.5966428 17.1252758-16.8911785 17.1252758m0-36.78124134c-10.65396431 0-19.36489289 8.82206896-19.36489289 19.65737934 0 10.8013793 8.71092858 19.6361724 19.36489289 19.6361724 10.6651071 0 19.3467857-8.8347931 19.3467857-19.6361724 0-10.83531038-8.6816786-19.65737934-19.3467857-19.65737934" transform="translate(0 .121138)"/><path d="m19.2381429 24.0941207-3.7412143 9.8513103-.0167143.3053793c1.23825.3534483 2.5377857.5301725 3.8846786.5301725 1.2647142 0 2.4918214-.1611725 3.6590357-.4665518l-.0417857-.369z"/><path d="m4.85800714 20.0694759c0 5.5378275 3.04339286 10.3984482 7.54510716 12.8923793l-6.72192859-17.7841035c-.53903571 1.5297242-.82317857 3.1683104-.82317857 4.8917242"/></g></svg>

<?xml version="1.0" encoding="UTF-8"?>
<svg width="39px" height="40px" viewBox="0 0 39 40" version="1.1" xmlns="http://www.w3.org/2000/svg" xmlns:xlink="http://www.w3.org/1999/xlink">
    <!-- Generator: sketchtool 45.2 (43514) - http://www.bohemiancoding.com/sketch -->
    <title>48D57637-4D8B-441E-9DBB-213F0FDAD276</title>
    <desc>Created with sketchtool.</desc>
    <defs></defs>
    <g id="Page-1" stroke="none" stroke-width="1" fill="none" fill-rule="evenodd">
        <g id="PrimeReact-Showcase---Homepage" transform="translate(-1260.000000, -1117.000000)" fill="#FFFFFF">
            <g id="homepage" transform="translate(301.000000, 70.000000)">
                <g id="brands" transform="translate(0.000000, 1019.000000)">
                    <g transform="translate(109.000000, 27.000000)" id="vw">
                        <g transform="translate(850.000000, 1.000000)">
                            <path d="M23.073375,5.82452069 C21.8852679,5.50641724 20.6303036,5.33817586 19.3641964,5.33817586 C18.1092321,5.33817586 16.8932679,5.50641724 15.7358036,5.80755517 L19.4129464,16.1070379 L23.073375,5.82452069 Z" id="Fill-1"></path>
                            <path d="M33.8571536,20.0694759 C33.8571536,18.2329586 33.5465464,16.4784414 32.9420464,14.8539931 L26.0446179,33.1216138 C30.6702964,30.6616138 33.8571536,25.7373724 33.8571536,20.0694759" id="Fill-3"></path>
                            <path d="M26.6595643,7.33784483 L22.4071714,19.2137069 L20.5296,19.2137069 L18.3024214,19.2137069 L16.4206714,19.2137069 L12.1529571,7.28694828 C10.57485,8.2045 9.19731429,9.4147069 8.05517143,10.8440517 L14.1168857,26.7972931 L16.3371,20.9696379 L18.0461357,20.9696379 L20.4488143,20.9696379 L22.1592429,20.9696379 L24.3780643,26.7972931 L30.4982786,10.6546034 C29.4188143,9.32987931 28.1151,8.2045 26.6595643,7.33784483" id="Fill-5"></path>
                            <g id="Group-9" transform="translate(0.000000, 0.121138)">
                                <path d="M19.3647536,37.073331 C10.0702179,37.073331 2.473575,29.379469 2.473575,19.9480552 C2.473575,10.4968483 10.0702179,2.79026207 19.3647536,2.79026207 C28.6592893,2.79026207 36.2559321,10.4968483 36.2559321,19.9480552 C36.2559321,29.379469 28.6592893,37.073331 19.3647536,37.073331 M19.3647536,0.292089655 C8.71078929,0.292089655 -0.000139285715,9.11415862 -0.000139285715,19.949469 C-0.000139285715,30.7508483 8.71078929,39.5856414 19.3647536,39.5856414 C30.0298607,39.5856414 38.7115393,30.7508483 38.7115393,19.949469 C38.7115393,9.11415862 30.0298607,0.292089655 19.3647536,0.292089655" id="Fill-7"></path>
                            </g>
                            <path d="M19.2381429,24.0941207 L15.4969286,33.945431 L15.4802143,34.2508103 C16.7184643,34.6042586 18.018,34.7809828 19.3648929,34.7809828 C20.6296071,34.7809828 21.8567143,34.6198103 23.0239286,34.314431 L22.9821429,33.945431 L19.2381429,24.0941207 Z" id="Fill-10"></path>
                            <path d="M4.85800714,20.0694759 C4.85800714,25.6073034 7.9014,30.4679241 12.4031143,32.9618552 L5.68118571,15.1777517 C5.14215,16.7074759 4.85800714,18.3460621 4.85800714,20.0694759" id="Fill-12"></path>
                        </g>
                    </g>
                </g>
            </g>
        </g>
    </g>
</svg>
